X:1
T:25 Lieder
T:Klage
T:7. Klage
T:Corona Elisabeth Wilhelmine Schröter
T:Anonymous
T:25 Lieder
T:NOTES TO TRANSCRIBER: 1. Full German text for the extra lyric verses is not yet available on Lieder.net. Instead please ask reviewer Danielr to send you the full German text by email. 2. Please transcribe into the Soprano clef, as published in the original IMSLP edition: the reviewer will convert staves to Treble clef before the score is published to the Lieder Corpus. 3. In the Piano RH, you can notate the two parts as a chord in a single voice where the rhythm is the same in both parts. 4. Here "pia." is a "p" dynamic. For a discussion about dynamic marks in 25 Lieder , see a thread on the MuseScore forum: https://musescore.org/en/node/302302 5. System breaks have been changed deliberately to allow a more spacious layout. 
T:Creative Commons copyright waiver (CC0 1.0 Universal)
C:Corona Elisabeth Wilhelmine Schröter
Z:Anonymous
Z:Creative Commons copyright waiver (CC0 1.0 Universal)
L:1/8
Q:1/4=114
M:2/4
K:F
V:1 alto1 nm="Singstimme\nVoice"
V:1
"^Warnend\n" c2 B2 | A F G E | F2 A2 | c B A G |{G} F2 F z | G2 A =B | c d e d |{d} c2 c2 | f2 e2 | %9
w: Früh- ling|währt nicht im- mer,|Mäd- chen,|Früh- ling währt nicht|im- mer.|Lasst _ euch|nicht die Zeit be-|trü- gen,|lasst euch|
 f c d B |{B} PA2 G2 | c2 B2 | A2 G2 | c2 B2 | A2 G2 | F3!p! F | (Fd) (BG) | F2{A} G2 | F2 z2 |] %19
w: nicht die Ju- gend|täu- schen,|Zeit und|Ju- gend|flech- ten|Krän- ze|aus gar|zar- * ten *|Blu- *|men.|

